X:126
T:The Harker House of Happiness 
R:double jig
C: 2006, 2010 L.E. McCullough 
M:6/8
L:1/8
K:Dmix
A2G|:(3FGA D FGA|GBd BAG|(3FGAD FGA|~c3 BAG|
(3FGA D FGA|GBd BAG|cde BAG|1~A3 ~A2G:|2~A3 ~A2e|]
|:fdd gee|(3gfed BAG|(3BcdD FGA|cde gfe|
fdd gee|fdg fed|cde BAG|1~A3 ~A2e:|2~A3 ~A2G|]
|:FAd ~f3|FAg fed|eGc ~g3|faf gfe|
FAd ~f3|FAg fed|1edc BAG|~A3 GFE:|2edc Bcd|cde BAG|]

